X: 3630
T: Bill McEvoy's
R: reel
M: 4/4
K: Gmajor
gf|:d2cA dG~G2|DGBd gdBd|c2B/c/d cF~F2|CFAc fagf|
d2cA dG~G2|DGBd gdBd|c2Ac fage|1 fdcA G2gf:|2 fdcA G2Bd||
gfga bgaf|gbag fd~d2|ec~c2 gceg|fgag fdef|
gfga bgaf|gbag fd~d2|ec~c2 gceg|1 fdcA G2Bd:|2 fdcA G2||

